!!!COM: Scriabin, Alexander
!!!OTL@@FR: Prélude
!!!OTL@@EN: Prelude
!!!OPR@@FR: 5 Préludes
!!!OPR@@EN:
!!!OPS: 15
!!!ONM: 2
!!!ODT: 1895
!!!AGN: Prelude
**kern	**kern	**dynam
*staff2	*staff1	*staff1/2
*Ipiano	*Ipiano	*
*clefF4	*clefG2	*
*k[f#c#g#]	*k[f#c#g#]	*
*f#:	*f#:	*
*M3/4	*M3/4	*
=1	=1	=1
8cc#L	16eeLL	.
.	16ee#X	.
8c#	16ff#	.
.	16aaJJ	.
8B	16gg#LL	.
.	16b	.
8e#X	16b#X	.
.	16cc#JJ	.
8G#	16eenLL	.
.	16dd	.
8C#J	16cc#	.
.	16bnJJ	.
=2	=2	=2
8f#L	16aLL	.
.	16b	.
8A	16cc#	.
.	16ddJJ	.
8C#	16ff#LL	.
.	16cc#	.
8cc#	16dd#X	.
.	16ee#XJJ	.
8f#	16ff#LL	.
.	16gg#	.
8AJ	16bb	.
.	16aaJJ	.
=3	=3	=3
8cc#L	16eeLL	.
.	16ee#X	.
8c#	16ff#	.
.	16aaJJ	.
8B	16gg#LL	.
.	16b	.
8e#X	16b#X	.
.	16cc#JJ	.
8G#	16eenLL	.
.	16dd	.
8C#J	16cc#	.
.	16bnJJ	.
=4	=4	=4
8f#L	16aLL	.
.	16b	.
8A	16cc#	.
.	16ddJJ	.
8C#	16ff#LL	.
.	16cc#	.
8cc#	16dd#X	.
.	16ee#XJJ	.
8f#	16ff#LL	.
.	16gg#	.
8AJ	16bb	.
.	16aaJJ	.
=5	=5	=5
8bL	16eeLL	.
.	16ee#X	.
8f#	16ff#	.
.	16aaJJ	.
8G#	16gg#LL	.
.	16b	.
8f#	16cc#	.
.	16ddJJ	.
8G#	16ff#LL	.
.	16f#	.
8BBJ	16een	.
.	16ddJJ	.
=6	=6	=6
8aL	16b#XLL	.
.	16cc#	.
8f#	16dd	.
.	16ff#JJ	.
8A	16eeLL	.
.	16f#	.
8f#	16g#	.
.	16aJJ	.
8A	16ddLL	.
.	16a	.
8C#J	16cc#	.
.	16b#JJ	.
=7	=7	=7
8f#L	16bnLL	.
.	16cc#	.
8G#	16dd	.
.	16aaJJ	.
8C#	16gg#LL	.
.	16dd	.
8G#	16ff#	.
.	16cc#JJ	.
8f#	16eeLL	.
.	16b	.
8BJ	16dd	.
.	16aJJ	.
=8	=8	=8
8e#XL	16cc#LL	.
.	16f##X	.
8B	16g#	.
.	16ddJJ	.
8C#	4cc#	.
8B	.	.
8e#	4r	.
8cc#J	.	.
=9	=9	=9
8cc#L	16eeLL	.
.	16ee#X	.
8c#	16ff#	.
.	16aaJJ	.
8B	16gg#LL	.
.	16b	.
8e#X	16b#X	.
.	16cc#JJ	.
8G#	16eenLL	.
.	16dd	.
8C#J	16cc#	.
.	16bnJJ	.
=10	=10	=10
8f#L	16aLL	.
.	16b	.
8A	16cc#	.
.	16ddJJ	.
8C#	16ff#LL	.
.	16cc#	.
8cc#	16dd#X	.
.	16ee#XJJ	.
8f#	16ff#LL	.
.	16gg#	.
8AJ	16bb	.
.	16aaJJ	.
=11	=11	=11
8cc#L	16eeLL	.
.	16ee#X	.
8c#	16ff#	.
.	16aaJJ	.
8B	16gg#LL	.
.	16b	.
8e#X	16b#X	.
.	16cc#JJ	.
8G#	16eenLL	.
.	16dd	.
8C#J	16cc#	.
.	16bnJJ	.
=12	=12	=12
8f#L	16aLL	.
.	16b	.
8A	16cc#	.
.	16ddJJ	.
8C#	16ff#LL	.
.	16cc#	.
8cc#	16dd#X	.
.	16ee#XJJ	.
8f#	16ff#LL	.
.	16gg#	.
8AJ	16bb	.
.	16aaJJ	.
=13	=13	=13
8f#L	16bLL	.
.	16b#X	.
8c#	16cc#	.
.	16eeJJ	.
8D#X	16dd#XLL	.
.	16f#	.
8c#	16g#	.
.	16aJJ	.
8D#	16cc#LL	.
.	16c#	.
8FF#J	16bn	.
.	16aJJ	.
=14	=14	=14
8eL	16f##XLL	.
.	16g#	.
8c#	16a	.
.	16cc#JJ	.
8E	16bLL	.
.	16c#	.
8c#	16d#X	.
.	16eJJ	.
8E	16aLL	.
.	16e	.
8GG#J	16g#	.
.	16f##JJ	.
=15	=15	=15
8c#L	16f#XLL	.
.	16g#	.
8D#X	16a	.
.	16eeJJ	.
8GG#	16dd#XLL	.
.	16a	.
8D#	16cc#	.
.	16g#JJ	.
8c#	16bLL	.
.	16f#	.
8F#J	16a	.
.	16eJJ	.
=16	=16	=16
8B#XL	16g#LL	.
.	16c##X	.
8F#	16d#X	.
.	16aJJ	.
8GG#	4g#	.
8E	.	.
8GG#	4c#X	.
8CC#J	.	.
=17	=17	=17
8GnL	16BLL	.
.	16e	.
8GGn	16gn	.
.	16f#JJ	.
8CC#	16eLL	.
.	16f#	.
8e	16g	.
.	16f#JJ	.
8G	16bLL	.
.	16g	.
8C#J	16cc#	.
.	16gJJ	.
=18	=18	=18
8eL	16cc#LL	.
.	16a#X	.
8F#	16dd	.
.	16gnJJ	.
8FF#	16cc#LL	.
.	16a#	.
8d	16dd	.
.	16f#JJ	.
8F#	4b	.
8BBJ	.	.
=19	=19	=19
8F#L	16ALL	.
.	16d	.
8FF#	16f#	.
.	16eJJ	.
8BBB	16dLL	.
.	16e	.
8d	16f#	.
.	16eJJ	.
8F#	16aLL	.
.	16f#	.
8BBJ	16b	.
.	16BJJ	.
=20	=20	=20
8F#L	16aLL	.
.	16f#	.
8GG#	16b	.
.	16BJJ	.
8DD	16aLL	.
.	16f#	.
8E#X	16b	.
.	16e#XJJ	.
8GG#	8.cc#	.
8CC#J	.	.
.	16b	.
=21	=21	=21
8f#L	16aaLL	.
.	16ff#	.
8G#	16bb	.
.	16bJJ	.
8D	16aaLL	.
.	16ff#	.
8e#X	16bb	.
.	16ee#XJJ	.
8G#	4ccc#	.
8C#J	.	.
=22	=22	=22
8cc#L	16eeLL	.
.	16ee#X	.
8c#	16ff#	.
.	16aaJJ	.
8B	16gg#LL	.
.	16b	.
8e#X	16b#X	.
.	16cc#JJ	.
8G#	16eenLL	.
.	16dd	.
8C#J	16cc#	.
.	16bnJJ	.
=23	=23	=23
8f#L	16aLL	.
.	16b	.
8A	16cc#	.
.	16ddJJ	.
8C#	16ff#LL	.
.	16cc#	.
8cc#	16dd#X	.
.	16ee#XJJ	.
8f#	16ff#LL	.
.	16gg#	.
8AJ	16bb	.
.	16aaJJ	.
=24	=24	=24
8cc#L	16eeLL	.
.	16ee#X	.
8c#	16ff#	.
.	16aaJJ	.
8B	16gg#LL	.
.	16b	.
8e#X	16b#X	.
.	16cc#JJ	.
8G#	16eenLL	.
.	16dd	.
8C#J	16cc#	.
.	16bnJJ	.
=25	=25	=25
8f#L	16aLL	.
.	16b	.
8A	16cc#	.
.	16ddJJ	.
8C#	16ff#LL	.
.	16cc#	.
8cc#	16dd#X	.
.	16ee#XJJ	.
8f#	16ff#LL	.
.	16gg#	.
8AJ	16bb	.
.	16aaJJ	.
=26	=26	=26
8bL	16eeLL	.
.	16ee#X	.
8f#	16ff#	.
.	16aaJJ	.
8G#	16gg#LL	.
.	16b	.
8f#	16cc#	.
.	16ddJJ	.
8G#	16ff#LL	.
.	16f#	.
8BBJ	16een	.
.	16ddJJ	.
=27	=27	=27
8aL	16b#XLL	.
.	16cc#	.
8f#	16dd	.
.	16ff#JJ	.
8A	16eeLL	.
.	16f#	.
8f#	16g#	.
.	16aJJ	.
8A	16ddLL	.
.	16a	.
8C#J	16cc#	.
.	16b#JJ	.
=28	=28	=28
8f#L	16bnLL	.
.	16cc#	.
8G#	16dd	.
.	16aaJJ	.
8C#	16gg#LL	.
.	16dd	.
8f#	16ff#	.
.	16cc#JJ	.
8G#	16eeLL	.
.	16dd	.
8C#J	16b	.
.	16f#JJ	.
=29	=29	=29
8F#L	16BLL	.
.	16c#	.
8GG#	16d	.
.	16aJJ	.
8CC#	16g#LL	.
.	16d	.
8F#	16f#	.
.	16c#JJ	.
8GG#	16eLL	.
.	16B	.
8CC#J	16d	.
.	16AJJ	.
=30	=30	=30
8EL	16c#LL	.
.	16F#	.
8AA#X	16Gn	.
.	16dJJ	.
8CC#	4c#	.
8D	.	.
8BB	4F# 4B	.
8CC#J	.	.
=31	=31	=31
8C#L	16ALL	.
.	16E#X	.
8FF#	16F#	.
.	16BJJ	.
8CC#	4A	.
8BB#X	.	.
8FF#	4D 4F#	.
8CC#J	.	.
=32	=32	=32
8c#L	16aLL	.
.	16e#X	.
8F#	16f#	.
.	16bJJ	.
8C#	4a	.
8B#X	.	.
8F#	4d 4f#	.
8C#J	.	.
=33	=33	=33
8c#L	16aLL	.
.	16e#X	.
8F#	16f#	.
.	16bJJ	.
8C#	4a	.
8B#X	.	.
8F#	4d 4f#	.
16C#Jk	.	.
16r	.	.
=34	=34	=34
*^	*	*
8.c#L	[4C# 4F#	16aLL	.
.	.	16e#X	.
.	.	16f#	.
16dJk	.	16bJJ	.
4c#	2C#_	4a	.
4CC#	.	4B 4c# 4e# 4g#	.
=35	=35	=35	=35
4FF#	2C#]	4A 4c# 4f#	.
4FFF#	.	4r	.
4rc	4rEE	4r	.
*v	*v	*	*
==	==	==
*-	*-	*-
!!!system-decoration: {(*)}
!!!ENC: Bryan Jacob Bell
!!!END: November 2021 to April 2022
!!!PED: Konstantin Igumnov and Yakov Milstein
!!!PTL: A.N. Skryabin: Polnoe sobranie sochinenii dlia fortepiano (Muzgiz)
